X:758
T:Andante (from "The Magic Flute")
C:Wolfgang Amadeus Mozart
M:C
L:1/16
K:C
e3f|(g4e2).c2 (^f2g2).e2.c2|.B2.c2.^c2.d2G4=c3B|
A2Bc defg (^ga)=gf edef|(c6dc .B2) z2 e3f|(^f2g2).e2.c2 fgag =fedc|
BcBc ^cdcd G4 =c3B|Acfa c'agf egeg fdfd|(d8c4):|